X:387
T:Rondeau de l'Agenais 2
R:rondeau
C:trad.
A:Landes
O:France
Z:S. Piron
M:2/4
L:1/8
Q:1/4=130
K:C
ccBd|dB/2d/2cG|ccBd|BA G2:|
|:cBc>d|efec|eedc|1BAAG:|2BAG2||
